X: 3608
T: Bill Harte's
R: jig
M: 6/8
K: Amixolydian
AAA eAe|fed ede|AAA eAe|fed BAG|
AAA eAe|fed efg|aba ged|egd BAG:|:
aba g2e|fed efg|aba ged|efd BAG|
aba g2e|fed efg|aba ged|efd BAG:|

